X:1
T:Title
%%score { ( 1 3 5 ) | ( 2 4 ) }
L:1/8
M:6/8
K:G
V:1 treble nm="Grand Piano"
V:3 treble 
V:5 treble 
V:2 treble 
V:4 treble 
V:1
 z3 z2[Q:1/4=100] G/A/ | BBB BcB | [DFA]3- [DFA]2 [A,DF]/[B,DG]/ | %3
 [CFA][CFA][CFA] [CFA][DFB][CFA] | G3- G2 G/A/ | BBB BcB | [FA]3- [FA]2 [Ed]/[Ed]/ | %7
 [G^c][GB][FA] [^CG][CF][CE] | D3- D2 D/E/ | FFF GFG | [FA]3- [FA]2 [DF]/[EG]/ | %11
 [FA][FA][FA] [GB][FA][GB] | [Fc]3- [Fc]2 B/c/ | ded BAG | [Ec]3- [Ec]2 [Ec]/[Ec]/ | %15
 [DB][DB][DB] [^CB][CA][CE] |[M:5/8] A-A- A3 |[M:5/32] B3/4 z/ | %18
[M:3/4] (7:8:7[B,G]3/4[B,G]-[B,G]/8[B,G]3/4G3/8E3/2D3/4 | [B,G]4- [B,G] z/ [CA]/ | %20
 (7:8:8[DB]3/4[CA]-[CA]/8[B,G]3/4[^CE]3/4[CF]-[CF]/8[CG]3/4 |[M:5/8] z5 |[M:1/8] z/ [CA]/ | %23
[M:3/4] (7:8:8[DB]3/4[Gd]-[Gd]/8[GB]3/4[EA]3/4[EG]-[EG]/8[CE]3/4 | G4- GG3/4 z/4 | %25
 (7:8:8B3/4A-A/8G3/4D3/4E-E/8F3/4 |[M:5/8] [B,G]-[B,G]- [B,G]3 |] %27
V:2
 z3 z2 [G,B,]/[G,CG]/ | [G,DG][G,DG][G,DG] [G,DG][G,EG][G,DG] | D,3- D,2 D,/D,/ | D,D,D, D,D,D, | %4
 [G,B,]3- [G,B,]2 [G,B,]/[K:treble][G,CG]/ | [G,DG][G,DG][G,DG] [G,DG][G,EG][G,DG] | %6
 [D,D]3- [D,D]2 [D,A,]/[D,A,]/ | [A,,A,][A,,A,][A,,A,] [A,,E,][A,,A,][A,,G,] | %8
 [D,F,]3- [D,F,]2 [D,F,]/[D,G,D]/ | [D,A,D][D,A,D][D,A,D] [D,B,D][D,A,D][D,B,D] | %10
 [D,D]3- [D,D]2 [D,A,]/[D,A,]/ | [D,D][D,D][D,D] [D,D][D,D][D,D] | %12
 [D,A,]3- [D,A,]2[K:treble] [G,G]/[G,A,G]/ | [G,B,G][G,CG][G,B,G] [G,DG][K:bass][G,CD][G,B,D] | %14
 [C,G,]3- [C,G,]2 [C,G,]/[C,G,]/ | [G,,G,][G,,G,][G,,G,] [A,,E,][A,,E,][A,,G,] | %16
[M:5/8] [D,F,C]-[D,F,C]- [D,F,C]3 |[M:5/32] [F,D]/-[D,-F,C-D]/4[D,C]/ | %18
[M:3/4] (7:8:7[G,,D,]3/4[G,,D,]-[G,,D,]/8[G,,D,]3/4[C,E,C]3/8[C,G,C]3/2[D,F,C]3/4 | %19
 [G,,G,]4- [G,,G,][G,,G,]/[G,,G,]/ | %20
 (7:8:8[G,,G,]3/4[G,,G,]-[G,,G,]/8[G,,G,]3/4[A,,G,]3/4[A,,F,]-[A,,F,]/8[A,,E,]3/4 | %21
[M:5/8] [D,F,]-[D,F,]- [D,F,]3- |[M:1/8] [D,F,]/4 z/4 z/ | %23
[M:3/4] (7:8:8[G,,G,]3/4[G,B,]-[G,B,]/8[G,D]3/4[C,C]3/4[C,C]-[C,C]/8[C,G,]3/4 | %24
 G,4- G,[B,,G,]3/4 z/4 | %25
 (7:8:8[G,D]3/4[G,C]-[G,C]/8[G,B,]3/4[D,F,C]3/4[D,G,C]-[D,G,C]/8[D,A,C]3/4 | %26
[M:5/8] [G,,G,]-[G,,G,]- [G,,G,]3 |] %27
V:3
 x6 | x6 | x6 | x6 | x6 | x6 | x6 | x6 | x6 | x6 | x6 | x6 | x6 | x6 | x6 | x6 |[M:5/8] x5 | %17
[M:5/32] z/ A3/4 |[M:3/4] x6 | z2 z2 z [B,G]3/4 z/4 | x6 |[M:5/8] [CA]-[CA]- [CA]3- | %22
[M:1/8] [CA]/4 z/4 z/ |[M:3/4] x6 | B,4- B,-[B,D-]/4D/4-[DA]/ | x6 |[M:5/8] x5 |] %27
V:4
 x6 | x6 | x6 | x6 | x11/2[K:treble] x/ | x6 | x6 | x6 | x6 | x6 | x6 | x6 | x5[K:treble] x | %13
 x4[K:bass] x2 | x6 | x6 |[M:5/8] x5 |[M:5/32] D,/ z/4 z/ |[M:3/4] x6 | x6 | x6 |[M:5/8] x5 | %22
[M:1/8] [G,,G,]/[G,,G,]/ |[M:3/4] x6 | G,,4- G,,-G,,/4 z/4 [D,F,]/ | x6 |[M:5/8] x5 |] %27
V:5
 x6 | x6 | x6 | x6 | x6 | x6 | x6 | x6 | x6 | x6 | x6 | x6 | x6 | x6 | x6 | x6 |[M:5/8] x5 | %17
[M:5/32] x5/4 |[M:3/4] x6 | x6 | x6 |[M:5/8] x5 |[M:1/8] [B,G]3/4 z/4 |[M:3/4] x6 | x6 | x6 | %26
[M:5/8] x5 |] %27

